X:218
T:For All The Saints
%%stretchlast false
M:4/4
L:1/4
K:Eb clef=C1
"^i"[E,,A,,G,E] "^I¹"[G,,G,EB] "^vii°¹"[F,,A,,A,DG] "^iii"[G,,B,,CF] | "^IV"[A,,C,CE] "^vi7²"[G,,B,,B,CE] "^i"[F,,A,,B,E] "^vi7¹"[E,,G,,A,B,C] | [F,,E,B,C] [E,,E,A,E] "^V¹"[D,,E,B,EF] "^V"[C,,D,B,] | "^Imaj7³"[D,,E,B,EG] "^vi7¹"[E,,C,B,G] "^Imaj7¹"[G,,D,B,EG] "^I²"[B,,E,B,EG] | "^♯iii"[A,,F,B,F] "^iii"[F,,G,,B,CF]/ "^iii7³"[F,,G,,B,DF]/ "^vi¹"[E,,G,,CEF] "^V/V"[A,,=A,,F,G,E] | "^V²"[F,,B,,F,CD] "^Imaj7¹"[G,,C,B,DE] [A,,B,,B,DE]/ "^i7²"[B,,B,DE]/ "^♭v°"[=A,,C,B,DE] | "^Imaj7¹"[G,,B,,B,DE] "^V7¹"[D,,A,,B,F] "^Imaj7"[E,,G,,=A,B,D] "^vi"[E,,F,,B,C] | "^iii"[G,,B,,B,] "^vi+²"[A,,C,B,] "^v"[B,,F,B,] "^vi+²"[A,,C,B,] | "^vi7"[C,E,B,E] [C,E,B,E] "^I"[G,,E,A,E] "^i¹"[A,,E,G,E] | "^iii"[G,,G,B,B] "^i"[F,,B,EB] [B,,B,EB] [E,,B,EB] | [E,,A,FA] [E,,B,EB] [E,,B,A]/ "^I"[E,,B,G]/ "^V¹"[D,B,DF]/ [D,B,DE]/ | "^vii"[D,F,DF] [D,F,EF] "^vi"[C,E,_DB] "^vi7³"[B,,E,CB] | [B,,E,Ec] "^♯iv°"[=A,,E,EB]/ "^♯iv°7"[=A,,E,EA]/ "^V"[=A,,E,DB] "^vi7²"[G,,E,CB] | [D,,E,CE] "^i"[E,,E,E] "^ii+"[F,,E,_DE] "^vi"[B,,E,CF]/ "^vi7³"[B,,E,CG]/ | "^♯iii"[F,,B,,B,A] "^iii"[G,,B,,A,G]/ "^♯iii"[A,,B,,A,G]/ [A,,B,,B,F] "^iii7"[G,,B,,G,F] | "^i"[E,,A,,G,E] "^I"[E,,G,,G,E] [E,,F,,G,E] "^i"[E,,E]2 | [E,B,B] "^vi"[D,CG] "^ii²"[C,A,F] | "^I7³"[D,G,E] "^I"[E,G,E] "^I¹"[G,,G,E] "^i"[B,,E,B,] | "^IV"[A,,E,C] "^I¹"[G,,E,E] "^I"[G,,E,F] "^♯iii°"[A,,D,B,] | "^I"[F,,E,G] "^I¹"[G,,E,G]2 "^vi"[C,E,G] | "^ii"[C,F,F] "^v"[B,,F,F] "^iii7¹"[B,,G,F] "^♯iv°"[A,,=A,E] | "^V"[B,,B,D] [C,B,D] [B,,F,D] "^vii"[E,,F,D] | "^I"[E,,G,E] "^ii"[E,,F,F] "^I7"[E,,G,D] "^vi¹"[E,C] | "^V¹"[D,B,]3 [D,B,] | "^i"[E,E]2 [E,E]2 | [E,B]2 "^iii"[G,B] [G,B] | "^♯iii"[A,A] "^v"[F,B] "^♯iii¹"[B,A]/ "^iii¹"[B,G]/ "^v"[B,F]/ "^i"[B,E]/ | "^v"[B,F]2 [B,B]2 | "^vi+"[A,c] "^vi7"[CB]/ "^vi+"[CA]/ "^v"[B,B]2 | "^i"[B,E] "^i¹"[A,E] "^I¹"[G,E] "^ii"[F,F]/ "^I"[E,G]/ | "^♯iii"[A,A] "^I"[E,G] "^ii"[E,F] "^vii"[D,F] | "^i"[E,E]4 |]
